public/img/usage/rifgosh.svg

<svg fill="none" height="64" viewBox="0 0 64 64" width="64" xmlns="http://www.w3.org/2000/svg" xmlns:xlink="http://www.w3.org/1999/xlink"><clipPath id="a"><path d="m0 0h64v64h-64z"/></clipPath><g clip-path="url(#a)" opacity=".7"><path d="m64 0h-64v64h64z" fill="#f01e00"/><path clip-rule="evenodd" d="m12.8748 17.7186c1.71 0 3.42.0025 5.13-.0025 1.375-.0063 2.7338.6112 3.6575 1.6262.8.8463 1.255 1.9875 1.315 3.1463.1175 1.6925-.7212 3.4087-2.1137 4.3737-.7363.5038-1.5938.8775-2.4963.9088-.9725.0325-1.9462-.0125-2.9187.0225.01.8587 0 1.7187.0062 2.5787-.86.005-1.72 0-2.58.0025zm2.5788 2.595c-.0025 1.6287 0 3.2587-.0025 4.8887.8662-.005 1.7337.0138 2.6-.0087 1.0762-.0325 2.0637-.8663 2.2775-1.92.17-.725-.0475-1.5075-.495-2.09-.4113-.5188-1.0613-.7913-1.7113-.8338-.8887-.0625-1.78-.03-2.6687-.0362zm9.5325-1.3163c-.03-.5925.4212-1.1375 1-1.2425.5212-.0737 1.05-.0225 1.575-.0362-.0025 2.7575.0112 5.515-.0063 8.2712 2.1538-2.7562 4.2713-5.5412 6.455-8.2737.835.005 1.67.0012 2.5063.0025-.0013 4.2187 0 8.4375-.0013 12.6562h-2.5775v-8.2737c-2.1337 2.7462-4.2575 5.5025-6.365 8.2687-.8675.01-1.7362.0025-2.6037.005.02-3.7925.015-7.585.0175-11.3775zm14.5-1.2775c2.2125-.0025 4.4237 0 6.6362-.0025 1.2488-.0087 2.625.08 3.645.885 1.4838 1.1825 1.81 3.5475.6525 5.065-.0775.1663-.4025.355-.16.535 1.1213 1.2925 1.1338 3.34.0875 4.6788-.35.435-.7775.8362-1.315 1.0212-.89.3238-1.8412.475-2.7875.4738-2.2537-.0038-4.5075 0-6.76 0 0-4.2188-.0025-8.4375.0013-12.655zm2.5925 2.5925v2.375c1.7625 0 3.5262.0025 5.2887 0 .5725.0113 1.0725-.4887 1.1238-1.0462.0887-.6488-.4575-1.3125-1.1213-1.3213-1.7637-.015-3.5275-.0025-5.2912-.0062zm0 5.0788c-.0038.7975 0 1.5937-.0025 2.3912 1.725-.005 3.4487.0025 5.1725-.0037.5487.0137 1.0825-.37 1.2175-.9063.1887-.6837-.3625-1.48-1.09-1.4725-1.765-.0225-3.5313-.0037-5.2975-.0087zm-14.0125 7.815c1.4412-.2475 2.97-.0138 4.245.71 1.6675.9137 2.905 2.5762 3.2887 4.44.2925 1.41.125 2.9237-.5237 4.2137-.7563 1.605-2.2113 2.8513-3.8988 3.3875-1.4562.4663-3.0737.4075-4.4937-.16-1.9875-.7675-3.5088-2.5937-3.945-4.675-.3125-1.4262-.1588-2.9612.4787-4.28.89-1.9087 2.7638-3.3225 4.8488-3.6362zm.11 2.7412c-.63.155-1.2175.4763-1.6825.9275-1.4225 1.2925-1.585 3.6675-.4088 5.1725 1.1263 1.5375 3.4438 1.9638 5.0588.9663 1.5912-.92 2.3287-3.055 1.5987-4.7525-.65-1.7863-2.7462-2.8188-4.5662-2.3138zm-15.3013-2.5262c3.0263.0025 6.0513-.0013 9.0763.0012.0012.8763.0025 1.7513 0 2.6263-2.1513-.0075-4.3038.005-6.455-.0063-.0275 3.345-.0038 6.6913-.0125 10.0375-.8675-.0025-1.7363-.0037-2.605 0-.0075-4.22-.0038-8.4387-.0025-12.6587zm24.59.0012c.87-.0012 1.74-.0012 2.6113 0 .0037 3.3538-.0025 6.7075.0025 10.0613h2.92c.0025-3.355-.005-6.71.0037-10.065.8688.0037 1.7363.0025 2.605 0 0 3.355.0013 6.71 0 10.0637h2.925c-.0062-3.355.0013-6.71-.0037-10.065.6362.0363 1.3087-.1012 1.9125.1575.4787.2288.7125.785.6837 1.2963-.005 3.735.0025 7.47-.0037 11.2062-4.5538-.015-9.1088.02-13.6613-.0175.0163-4.2137.0063-8.4262.005-12.64z" fill="#fff" fill-rule="evenodd"/></g></svg>

<svg width="64" height="64" viewBox="0 0 64 64" fill="none" xmlns="http://www.w3.org/2000/svg">
<g style="mix-blend-mode:luminosity" opacity="0.7" clip-path="url(#clip0_242_4805)">
<path d="M64 0H0V64H64V0Z" fill="#F01E00"/>
<path fill-rule="evenodd" clip-rule="evenodd" d="M12.8748 17.7186C14.5848 17.7186 16.2948 17.7211 18.0048 17.7161C19.3798 17.7098 20.7386 18.3273 21.6623 19.3423C22.4623 20.1886 22.9173 21.3298 22.9773 22.4886C23.0948 24.1811 22.2561 25.8973 20.8636 26.8623C20.1273 27.3661 19.2698 27.7398 18.3673 27.7711C17.3948 27.8036 16.4211 27.7586 15.4486 27.7936C15.4586 28.6523 15.4486 29.5123 15.4548 30.3723C14.5948 30.3773 13.7348 30.3723 12.8748 30.3748V17.7186ZM15.4536 20.3136C15.4511 21.9423 15.4536 23.5723 15.4511 25.2023C16.3173 25.1973 17.1848 25.2161 18.0511 25.1936C19.1273 25.1611 20.1148 24.3273 20.3286 23.2736C20.4986 22.5486 20.2811 21.7661 19.8336 21.1836C19.4223 20.6648 18.7723 20.3923 18.1223 20.3498C17.2336 20.2873 16.3423 20.3198 15.4536 20.3136ZM24.9861 18.9973C24.9561 18.4048 25.4073 17.8598 25.9861 17.7548C26.5073 17.6811 27.0361 17.7323 27.5611 17.7186C27.5586 20.4761 27.5723 23.2336 27.5548 25.9898C29.7086 23.2336 31.8261 20.4486 34.0098 17.7161C34.8448 17.7211 35.6798 17.7173 36.5161 17.7186C36.5148 21.9373 36.5161 26.1561 36.5148 30.3748H33.9373V22.1011C31.8036 24.8473 29.6798 27.6036 27.5723 30.3698C26.7048 30.3798 25.8361 30.3723 24.9686 30.3748C24.9886 26.5823 24.9836 22.7898 24.9861 18.9973ZM39.4861 17.7198C41.6986 17.7173 43.9098 17.7198 46.1223 17.7173C47.3711 17.7086 48.7473 17.7973 49.7673 18.6023C51.2511 19.7848 51.5773 22.1498 50.4198 23.6673C50.3423 23.8336 50.0173 24.0223 50.2598 24.2023C51.3811 25.4948 51.3936 27.5423 50.3473 28.8811C49.9973 29.3161 49.5698 29.7173 49.0323 29.9023C48.1423 30.2261 47.1911 30.3773 46.2448 30.3761C43.9911 30.3723 41.7373 30.3761 39.4848 30.3761C39.4848 26.1573 39.4823 21.9386 39.4861 17.7211V17.7198ZM42.0786 20.3123C42.0786 21.1036 42.0786 21.8948 42.0786 22.6873C43.8411 22.6873 45.6048 22.6898 47.3673 22.6873C47.9398 22.6986 48.4398 22.1986 48.4911 21.6411C48.5798 20.9923 48.0336 20.3286 47.3698 20.3198C45.6061 20.3048 43.8423 20.3173 42.0786 20.3136V20.3123ZM42.0786 25.3911C42.0748 26.1886 42.0786 26.9848 42.0761 27.7823C43.8011 27.7773 45.5248 27.7848 47.2486 27.7786C47.7973 27.7923 48.3311 27.4086 48.4661 26.8723C48.6548 26.1886 48.1036 25.3923 47.3761 25.3998C45.6111 25.3773 43.8448 25.3961 42.0786 25.3911ZM28.0661 33.2061C29.5073 32.9586 31.0361 33.1923 32.3111 33.9161C33.9786 34.8298 35.2161 36.4923 35.5998 38.3561C35.8923 39.7661 35.7248 41.2798 35.0761 42.5698C34.3198 44.1748 32.8648 45.4211 31.1773 45.9573C29.7211 46.4236 28.1036 46.3648 26.6836 45.7973C24.6961 45.0298 23.1748 43.2036 22.7386 41.1223C22.4261 39.6961 22.5798 38.1611 23.2173 36.8423C24.1073 34.9336 25.9811 33.5198 28.0661 33.2061ZM28.1761 35.9473C27.5461 36.1023 26.9586 36.4236 26.4936 36.8748C25.0711 38.1673 24.9086 40.5423 26.0848 42.0473C27.2111 43.5848 29.5286 44.0111 31.1436 43.0136C32.7348 42.0936 33.4723 39.9586 32.7423 38.2611C32.0923 36.4748 29.9961 35.4423 28.1761 35.9473ZM12.8748 33.4211C15.9011 33.4236 18.9261 33.4198 21.9511 33.4223C21.9523 34.2986 21.9536 35.1736 21.9511 36.0486C19.7998 36.0411 17.6473 36.0536 15.4961 36.0423C15.4686 39.3873 15.4923 42.7336 15.4836 46.0798C14.6161 46.0773 13.7473 46.0761 12.8786 46.0798C12.8711 41.8598 12.8748 37.6411 12.8761 33.4211H12.8748ZM37.4648 33.4223C38.3348 33.4211 39.2048 33.4211 40.0761 33.4223C40.0798 36.7761 40.0736 40.1298 40.0786 43.4836C41.0511 43.4836 42.0248 43.4836 42.9986 43.4836C43.0011 40.1286 42.9936 36.7736 43.0023 33.4186C43.8711 33.4223 44.7386 33.4211 45.6073 33.4186C45.6073 36.7736 45.6086 40.1286 45.6073 43.4823C46.5823 43.4823 47.5573 43.4823 48.5323 43.4823C48.5261 40.1273 48.5336 36.7723 48.5286 33.4173C49.1648 33.4536 49.8373 33.3161 50.4411 33.5748C50.9198 33.8036 51.1536 34.3598 51.1248 34.8711C51.1198 38.6061 51.1273 42.3411 51.1211 46.0773C46.5673 46.0623 42.0123 46.0973 37.4598 46.0598C37.4761 41.8461 37.4661 37.6336 37.4648 33.4198V33.4223Z" fill="white"/>
</g>
<defs>
<clipPath id="clip0_242_4805">
<rect width="64" height="64" fill="white"/>
</clipPath>
</defs>
</svg>
